public/images/icon-menu-04.svg

<svg width="16" height="16" viewBox="0 0 16 16" fill="none" xmlns="http://www.w3.org/2000/svg">
  <g clip-path="url(#clip0_12_8096)">
    <path d="M10.571 16H5.429C5.3097 15.9815 5.20095 15.9209 5.12241 15.8292C5.04386 15.7375 5.00069 15.6207 5.00069 15.5C5.00069 15.3793 5.04386 15.2625 5.12241 15.1708C5.20095 15.0791 5.3097 15.0185 5.429 15H6.167L6.5 13H2C1.46957 13 0.960859 12.7893 0.585786 12.4142C0.210714 12.0391 0 11.5304 0 11V10H16V11C16 11.5304 15.7893 12.0391 15.4142 12.4142C15.0391 12.7893 14.5304 13 14 13H9.5L9.833 15H10.571C10.6903 15.0185 10.799 15.0791 10.8776 15.1708C10.9561 15.2625 10.9993 15.3793 10.9993 15.5C10.9993 15.6207 10.9561 15.7375 10.8776 15.8292C10.799 15.9209 10.6903 15.9815 10.571 16ZM16 9H0V2C0 1.46957 0.210714 0.960859 0.585786 0.585786C0.960859 0.210714 1.46957 0 2 0H14C14.5304 0 15.0391 0.210714 15.4142 0.585786C15.7893 0.960859 16 1.46957 16 2V9Z" fill="#9CA5B1"/>
  </g>
  <defs>
    <clipPath id="clip0_12_8096">
      <rect width="16" height="16" fill="white"/>
    </clipPath>
  </defs>
</svg>

<svg width="16" height="16" viewBox="0 0 16 16" fill="none" xmlns="http://www.w3.org/2000/svg">
  <g clip-path="url(#a)">
    <path d="M10.571 16H5.43a.506.506 0 0 1 0-1h.738l.333-2H2a2 2 0 0 1-2-2v-1h16v1a2 2 0 0 1-2 2H9.5l.333 2h.738a.506.506 0 0 1 0 1m5.43-7H0V2a2 2 0 0 1 2-2h12a2 2 0 0 1 2 2z" fill="#fff"/>
  </g>
  <defs>
    <clipPath id="a">
      <path fill="#fff" d="M0 0h16v16H0z"/>
    </clipPath>
  </defs>
</svg>
